X: 1
T: The E-B-E
R: reel
M: 4/4
L: 1/8
K: Edor
|:E2BE DAFD|B,DEF EDB,D|E2BE DAFD|FB,EB, DB,A,D|
E2BE DAFD|B,DEF EDB,D|BDAD FB,EB,|1 DB,A,D B,EED:|2 DB,A,D B,EE2||
|:eBde BEED|E^GBE d2cd|eBde BEE2|FB,EB, D2FA|eBde BEED|
E^GBE d2cd|1 eBdA BFAE|FB,EB, D2FA:|2 Bcde Bcde|(3ABc de ABcd||

composer: Paddy Fahey
